X:1
T:EL PERDÓN DE PLOËRMEL
T:EL PERDÓN DE PLOËRMEL
T:Gran vals de salón sobre el tema de Meyerbeer
T:F. BURGMÜLLER
T:INTRODUCCIÓN
T:by Mutopia-2007/05/01-972 - public domain
T:by Mutopia-2007/05/01-972 - public domain
T:by Mutopia-2007/05/01-972 - public domain
T:by Mutopia-2007/05/01-972 - public domain
T:by Mutopia-2007/05/01-972 - public domain
T:by Mutopia-2007/05/01-972 - public domain
T:by Mutopia-2007/05/01-972 - public domain
T:by Mutopia-2007/05/01-972 - public domain
T:by Mutopia-2007/05/01-972 - public domain
T:by Mutopia-2007/05/01-972 - public domain
C:F. BURGMÜLLER
Z:by Mutopia-2007/05/01-972 - public domain
%%score { ( 1 3 ) | ( 2 4 ) }
L:1/8
Q:3/8=112
M:6/8
K:A
V:1 bass nm="Piano" snm="Pf."
V:3 bass 
V:2 bass 
V:4 bass 
V:1
!f!"^Allegro risoluto" .E, |!<(! .A,,.C,.E,{/A,} .A,.G,.A,!<)! | (B,3 E,) z[K:treble]!p! e | %3
w: |||
{/e} .B z .e{/e} .^A z .e |{/e} .B z .b{/b} .!^![ee'] !fermata!z!f! .E | %5
w: ||
!<(! .C.E.A!<)! .c z .[^EG] | !>![FA]3 !>![^DFB]3 | z!pp! .[=DE].[DF] .[DG].[DF].[DE] | %8
w: |||
 .[CA] z e{/e} .!^![Aa] !fermata!z (C | A3) (GAG) | (([A,F]3 C)) (C^D) | [C^E]3 (^DED) | %12
w: ||||
 C z G,/>G,/ .G2!pp! .[G,^B,^D] | .[G,C] z .G,{/G,} .G z!pp! .[G,^B,^D] | .[G,C] z z!ff! =F3 | %15
w: |||
"_cresc." =F3 F3 ||[K:F]!ff! F z !>!.d{/d} .cz.A |{/A} .Fz.D{/D} .C[I:staff +1].A,.F, | %18
w: |||
!ff! F,[I:staff -1] z z .!^![cfgc'] z z | z6 |!p! z z z!pp! !arpeggio!.[cegc'] z z | !fermata!z6 || %22
w: ||||
[M:2/4]!pp![Q:1/4=56]"^Andantino grazioso (\n)\n" z/ (F/4A/4c) z/ (A/4F/4C) | %23
w: |
 z/ (F/4A/4c) z/ (A/4F/4C) | (c/f/4a/4!pp! c' !5!c/A/4F/4 C | c/f/4a/4 c' c/A/4F/4 C) | %26
w: |||
!<(! (c/_B/A/B/ .d)!<)!!f!.!tenuto!d |!>(! (d/G)!>)!^F/"_dim." (!1!G/.A/.B/.!4!=B/) | %28
w: ||
!pp! (c/f/4a/4 c' !5!c/A/4F/4 C | c/f/4a/4 c' c/!>(!f/A-)!>)! | A{/A}d/(c/ A/B/G/.c/4) z/4 | %31
w: |||
 c/F/a/e/ f/A/{/A} (3e/d/c/ | c_d =dc | (c/.F/) (3f'/a/"_dim."d'/ (3c'/!1!e/!2!f/ (3!5!c'/A/B/ | %34
w: |||
 (c_d"_dim." =dc) ||[M:6/8][Q:1/4=144]"^Allegro" .F!pp! z .a{/a} !>!.^cza | %36
w: ||
{/a} !>!.dz.a{/a} !>!.^cz.a |{/a} !>!.dz"_cresc.".a{/a} !>!.^cz.a |{/a} !>!.dza{/a} !>!.^dza | %39
w: |||
!f!{/a} .d z z!8va(! .[e'e'']!8va)! z .f |{/a} .d z z!8va(!!8va(! .[e'e'']!8va)!!8va)! z .f | %41
w: ||
{/f} .e!<(!z.^f{/f} !>!.ez.=g |{/g} !>!.ez.^g{/g} !>!.e!<)! !fermata!z || %43
w: ||
[K:C][M:3/4][Q:3/4=96]"^Vivo""^Vals" e |{/a} !>!.e2!f! z2 .e2 |{/a} !>!.e2 z2 .b2 | %46
w: |||
{/b} !>!.e'2 z2 .b2 |{/b} !>!.c'2 .a2 .e'2 |{/e'} !>!.a'2 z2 .e'2 |{/e'} .f'2 z2 (3(_bc'b | %50
w: ||||
"_dim." .a2) z2 (3(a=ba | .^g2) .e2 .a2 |!f!{/a} !>!.e2 z2 .a2 |{/a} !>!.e2 z2 .b2 | %54
w: ||||
{/b} .e'2 z2 .b2 |{/b} !>!.c'2 .a2 .e'2 |{/e'} !>!.a'2 z2 .e'2 |{/e'} !>!.c'2 z2 a2 | %58
w: ||||
{/a} .c'2 .d'2 .b2 |{/b} !>!.e'2 z2 .e'2 |{/e'} !>!a'2 z2 e'2 | (e'2 d'c'ba) | c'2 d'2 b2 | %63
w: |||||
 a2 z2!p! =G2 |"^cantabile"!<(!{/G} (c4 d2 | d4 f2 | ^f4 g2!<)! |!>(! ^g4 a2)!>)! | d4 e2 | %69
w: ||||||
{/g} e4 e2 | f4 g2 | e2 z2 g2 |!f!!<(!{/g} ([cc']4 [dd']2 | [ee']4 [c'c'']2!<)! | [bb']4 [aa']2) | %75
w: dolce *||||||
 ([^g^g']4 [aa']2) |"_dim." ([dd']4 [ee']2 | [ff']4 [^f^f']2 | [gg']4 [dd']2 |!p! [ee']2) z2 .e2 | %80
w: |||||
{/e} d2 z2 d2 |{/d} !>!c2 z2 c2 |{/e} d2 z2!<(! (3(Bcd!<)! |"_cresc." e2) z2 (3(e'f'e' | %84
w: ||||
 .d'2) z2 (3d'e'd' |!<(! c'2 (!1!e^f^g!1!a | bc'!1!d'e'^f'^g'!<)! |!f! .a'2) z2 .a2 | %88
w: ||||
{/a} !>!.e2 z2 .a2 |{/a} !>!.e2 z2 .b2 |{/b} !>!.e'2 z2 .b2 |{/b} !>!.e'2 .a2 .e'2 | %92
w: ||||
{/e'} !>!.a'2 z2 .e'2 |{/e'} .f'2 z2 (3(_bc'b |"_dim." .a2) z2 (3(a=ba | .^g2) .e2 .a2 | %96
w: ||||
!f!{/a} !>!.e2 z2 .a2 |{/a} !>!.e2 z2 .b2 |{/b} .e'2 z2 .b2 |{/b} !>!.c'2 .a2 .e'2 | %100
w: ||||
{/e'} !>!.a'2 z2 .e'2 |{/e'} !>!.c'2 z2 .a2 |{/a} !>!.c'2 .d'2 .b2 |{/b} !>!.e'2 z2 .e'2 | %104
w: ||||
{/e'} !>!a'2 z2 e'2 | (e'2 d'c'ba) | .c'2 .d'2 .b2 | .a2 z2!ff! .=G2 | %108
w: ||||
!f!"^Vibrato"{/E} .A,2 z2 .E2 |!f!{/E} .A,2 z2 .E2 |!f!{/E} .A,2 z2!p! .!4!E2 || %111
w: |||
[K:A]"^dolce e cantabile" z2 z2 E2 | (E4 F2) | (!arpeggio!!>!F6 | E6) | z2 z2 E2 | (E4 F2) | %117
w: ||||||
 (!arpeggio!F6 | E2) z2 z2 |!<(! (E4 A2) | (A4 c2)!<)! |!>(! (c4 B2) | (B4 F2)!>)! | %123
w: ||||||
"_dim." (A2 G2 F2 | G4 B2) |1 .A2!>(! (C2 D2 | ^D2 F2 E2)!>)! :|2 A2 z2 z2 || (!3!aga_ba!2!=g) | %129
w: ||||||
 (!4!=g=fefgf) | (edcded) | ce .A2 z2 |"_cresc." (AGA_BA=G) | (=G=FEFGF) | (EDCDED) | %135
w: ||||||
!f! C2 z!<(! (CDE!<)! | =F2) z (FED | C2) z!<(! (CDE!<)! | =F2) z (FED | C2) z (CD^D | %140
w: |||||
"_cresc.  ed  accel" E2) z (E=F^F | =G2) z!<(! (FGA |!f! _B2)!<)! z!<(! (F=GA!<)! | %143
w: |||
 _B3)"_dim. e poco riten" (F=GA | _B3)!<(! (F=GA!<)! |!pp! _B2) z2 z2 | z2 z!p! (F=G^G) || %147
w: ||||
[K:D]"^più moderato."!p!{/B} (A^GA^ABc) |{/e} (dcdfed) | (c.e/) z/ .G2 .G2 | G3 BAG | %151
w: ||||
!<(! (FAdedc) | (B^defe=d)!<)! | (c.a/) z/ .A2 .A2 | !^!A2 z F (G^G/>B/) | %155
w: ||||
!p!{/B} (A!<(!^GA^ABc)!<)! |!>(!{/e} dcded=c!>)! | (B.g/) z/ .G2 .G2 | G6 |!p! (!2!F!1!A!2!dfa) z | %160
w: |||||
 (!5!bag!1!e!2!c) z | (dafdAF) | z2!<(! [dd']2 .[ee']2!<)! | %163
w: |||
!ff! !arpeggio!.!^![f^ac'f']2 (f'g'f'e') | (e'd')(d'c') b2 | c2!p! (cdcB | .^A2) (Ac F2) | %167
w: ||||
!ff! !arpeggio![f^ac'f']2 (f'g'f'e') | (!>!e'd'){/e'}(d'c' b2) |"_dim." .c2 cdcB | %170
w: |||
!pp!"^una corda" .^A2 !1!A!2!c !5!^a2- | a2 (Bc ^g2-) | g2 (^Ac f2-) | f2 (C^G c2 | %174
w: ||||
 [F^A]2) (!1!Ac ^a2-) | a2 Bc ^g-g- | g2 (^Ac f2-) | f2 (C^G (c2) | [F^A]2) (Fc .f2) | %179
w: |||||
 z2 (fc' .f'2) | z2 F"^tre corde"c .f2 | z2 fc' .f'2 | !arpeggio![g^c'=g'](!3!f!5!agfe | dcBAGF | %184
w: |||||
 EDCB,A,B, |"_dim. riten" CDEFG^G) |"^a Tempo"{/B} (A!p!^GA^ABc) |{/e} (dcdfed) | %188
w: ||||
 (c.e/) z/ .G2 .G2 | (G3 BAG) |!<(! (FAdedc) | (B^defe=d)!<)! | (c.a/) z/ .A2 .A2 | %193
w: |||||
 !^!A2 z (FG^G) |!p!{/B} (A!<(!^GA^ABc)!<)! |!<(!{/e} (dcded=c)!<)! |!>(! B!>)!.g/ z/ .G2 .G2 | %197
w: ||||
 !>!G6 | (!2!G!p!!1!A!2!dfa) z | (!5!bag!1!e!2!c) z | (dafdAF) | z2!<(! [dd']2 [ee']-[ee']!<)! | %202
w: |||||
!ff! !arpeggio!.!^![f^ac'f']2 (f'g'f'e') | (e'd')(d'c') b2 | c2 (cdcB!p! | .^A2) (Ac F2) | %206
w: ||||
!ff! !arpeggio![f^ac'f']2 (f'g'f'e') | (!>!e'd'){/e'}(d'c' b2) | .c2!p! (cdcB |!pp! .^A2) (Ac F2 | %210
w: ||||
 d2) (dcB!5!d) | (c^A !1!F4) |{/F} d2 (dcBd) | (c^A .F2) (!3!^cd | !>!e6) | (B^G E2) (e.^d | %216
w: ||||||
 !>!e6) |!f! (B^G E2) .[Ee]2 | (=cA .E2) .!^![Ee]2 | (dB .E2) .!^![Ee]2 | (=cA .E2) .!^![Ee]2 | %221
w: |||||
"_molto cresc. ed accelerando" (B^G .E2) .!^![Ee]2 | (=cA .E2) .!^![Ee]2 | (dB E2) .!^![Ee]2 | %224
w: |||
 (=cA .E2) .!^![Ee]2 |"^animato" .[E^GB]2 z .[=FB=f] !^![FBf]2 | .[EBe]3 [=FB=f] [FBf]-[FBf] | %227
w: |||
 .[EBe]3 [=FB=f] [FBf]-[FBf] | .[EBe]3 [=FB=f] [FBf]-[FBf] |!ff! [EBe]2 z .!^![=F=f]z.!^![Ff] | %230
w: |||
 z .!^![Dd]z.!^![Ee]z.!^![Dd] | z .!^![=C=c]z.!^![Dd]z.!^![Cc] | %232
w: ||
 z .!^![B,B]z.!^![=C=c]z.!^![B,B] ||[K:C]"^Vivo." [A,A]2 z2 .a2 |{/a} !>!.e2 z2 .a2 | %235
w: |||
{/a} !>!.e2 z2 .b2 |{/b} !>!.e'2 z2 .b2 |{/b} !>!.c'2 .a2 .e'2 |{/e'} !>!.a'2 z2 .e'2 | %239
w: ||||
{/e'} .f'2 z2 (3(_bc'b |"_dim." .a2) z2 (3(a=ba | .^g2) .e2 .a2 |{/a} !>!.e2 z2 .a2 | %243
w: ||||
{/a} !>!.e2 z2 .b2 |{/b} !>!.e'2 z2 .b2 |{/b} !>!.c'2 .a2 .e'2 |{/e'} !>!.a'2 z2 .e'2 | %247
w: ||||
{/e'} !>!.f'2 z2 .a2 |{/b} .c'2 .d'2 .b2 |{/e'} !>!.a'2 z2 .e'2 | !>!.a'3 z e'-e' | (e'2 d'c'ba) | %252
w: |||||
 .c'2 .b2{/b} !>!.e'2 |"_cresc. e accelerando" .c'2 .b2{/b} !>!.e'2 | (c'b .e'2) (c'b | %255
w: |||
 .e'2) (c'b .e'2) | (ee'!ff!ee'ee') | (ee'ee'ee') | (ee'ee'ee') | (ee'ee'ee') |!ff! (ee'ee'ee') | %261
w: ||||||
 (ee'ee'"_dim. e poco riten."ee') | (ee'ee'ee') | ee'ee'ee' |!p!{/e} ([ee']6 | [dd']4 [ee']2 | %266
w: |||||
 !>![ff']6 | [ee']4 [dd']2) | (.[dd']2!<(! .[Gg]2 .[Aa]2)!<)! |!f!!>(! (([cc']4 [_B_b]2))!>)! | %270
w: ||||
 (([^G^g]6 | .[Aa]2)) z2 z2 |!mf!!<(! ([ee']6 | [dd']4 [ee']2) | %274
w: ||||
 .!^![gg']2 .!^![ff']2 .!^![gg']2!<)! |!>(! .!^![aa']2 .!^![ff']2 z .!^![dd'] | %276
w: ||
 .!^![dd']2 .[Gg]2 .[Aa]2!>)! |!>(! ([cc']4 [_B_b]2)!>)! | [Aa]4 .a2 |{/a} .^c2 z2 .a2!pp! | %280
w: ||||
{/a} .d2 z2 .a2 |{/a} .^c2 z2 .a2 |{/a} .=c2 z2"_cresc. e accel." .a2 |{/a} .^c2 z2 .a2 | %284
w: ||||
{/a} .d2 z2 .a2 |{/a} .^d2 z2 .a2 ||[K:A]!f!"^più animato"{/a} .e2 z2 .e2 | (e4 f2) | %288
w: ||||
({!1!G!2!d} !>!.!4!f2!<(! !1!efg!1!a | bc'd'e'f'g'!<)! | a'2) z2 .e2 | (e4 f2) | %292
w: ||||
({!1!G!2!d} !>!.!4!f2!<(! !1!efg!1!a | bc'd'e'f'g'!<)! | .a'2) z2 .[aa']2 |!<(! (([aa']4 [bb']2)) | %296
w: ||||
!8va(! (([bb']4 [aa']2)) | ([aa']4 [bb']2!<)! | .[c'c'']2) z2 ([gg']2 | %299
w: |||
 .[aa']2)!8va)! z2 !>![ff']2- | [ff']2!<(! .[Bb]2 .[cc']2!<)! |!>(! ([ee']4 [dd']2!>)! | %302
w: |||
 .[cc']2) z2!8va(! .[aa']2 |!<(! ((([aa']4 [bb']2))) | (([bb']4 [aa']2)) | (([aa']4 [bb']2))!<)! | %306
w: ||||
 .[^c'^c'']2 (a'b'c''d'' | .e''2)!8va)!!<(! (abc'd'!<)! | .!^!e'2) .!^!c'2 .!^!a2 | %309
w: |||
 .!^!e2 .!^!c2 .!^!A2 | z2 .[=f=f']2 .[dd']2 | z2 .[Bb]2 [^G^g]2 | z2 .[=F=f]2 .[Dd]2 | %313
w: ||||
 z2 .[B,B]2 .[^G,^G]2 |!ff! [A,A]2 z .[Acea] .[Acea]2 | .[Acea]2!<(! .[Acea]2 .[Acea]2 | %316
w: |||
 .[Acea]2 .[Acea]2 .[Acea]2 | .[Acea]2 .[Acea]2 .[Acea]2!<)! | .!^![Acea]2 z .[ceac'] .[ceac']2 | %319
w: |||
 .[ceac']2 .[ceac']2 .[ceac']2 | .[ceac']2 .[ceac']2 .[ceac']2 | .[ceac']2 .[ceac']2 .[ceac']2 | %322
w: |||
!f! .[ceac']2 z .[eac'e'] .[eac'e']2 | .[eac'e']2!<(! .[eac'e']2 .[eac'e']2 | %324
w: ||
 .[eac'e']2 .[eac'e']2 .[eac'e']2 | .[eac'e']2 .[eac'e']2 .[eac'e']2!<)! | .!^![aa']2 .c'2 .e'2 | %327
w: |||
 .!^![aa']2 .c'2 .e'2 | .!^![aa']2 .c'2 .e'2 | .!^![aa']2 .c'2 .e'2 | .!^![aa']2 z2 z2 | %331
w: ||||
 .[EAce]2 z2 z2 | .!^![aa']2 z2 z2 | .[EAce]2 z2 z2 |!fff!!8va(!{e''f''g''} .!^!a''2!8va)! z4 |] %335
w: ||||
V:2
 .E,, | .!2!A,,,.C,,.E,, .!1!A,,.!3!G,,.!2!A,, | (B,,3 E,,) z z | %3
!ped! .[E,G,D] z z!ped-up! .[E,=G,^C] z z | .[E,G,D]!ped! z z !^![E,,E,] !fermata!z .E,!ped-up! | %5
 .C,.E,.A, .C z .[C,C] | [F,C]3 [B,,A,]3 | z .[E,G,].[E,A,] .[E,B,].[E,A,].[E,G,] | %8
 [A,,A,]!ped! z z .!^![A,,,A,,] !fermata!z!ped-up! z | [F,,C,F,]3 [F,,C,^E,]3 | %10
 [F,,C,F,]3- [F,,C,F,] z z | G,3 [F,^B,]3 | ^E,2 z z2 .[G,,F,] | [C,^E,] z z3 .[G,,F,] | %14
 .[C,^E,] z z [=F,_A,]3 | [=F,_A,]3 [F,A,]3 ||[K:F]!ped! [C,,C,] z!ped-up! D .C2 A, | %17
 .F,z.D, .C,.A,,.F,, | [F,G,C] z z[K:treble] .!^![CFG] z z | z6 | %20
[K:bass] [E,G,B,C] z z !arpeggio!.[CGB] z z | !fermata!z6 ||[M:2/4] [D,,,F,,](C,[F,A,]C,) | %23
!ped! .F,,(C,[F,A,]!ped-up!.C,) |!ped! .F,,(C,[F,A,]!ped-up!.C,) |!ped! .F,,(C,[F,A,]!ped-up!.C,) | %26
!ped! .F,,(C,[E,B,]!ped-up!C,) |!ped! F,,(C,[E,B,]!ped-up!C,) |!ped! .F,,(C,[F,A,]!ped-up!C,) | %29
!ped! .F,,(C,[F,A,]!ped-up!C,) |!ped! .F,,(C,[E,B,]!ped-up!C,) |!ped! .F,,(C,[F,A,]!ped-up!C,) | %32
!ped! .F,,(C,[G,B,]!ped-up!C,) |!ped! .F,,(C,[F,A,]!ped-up!C,) |!ped! .F,,(C,[F,A,]!ped-up!C,) || %35
[M:6/8] .[F,A,].[F,A,C].[F,A,C] .[F,A,^C].[F,A,C].[F,A,C] | %36
 .[F,A,D].[F,A,D].[F,A,D] .[F,A,^C].[F,A,C].[F,A,C] | %37
 .[F,A,=C].[F,A,C].[F,A,C] .[F,A,^C].[F,A,C].[F,A,C] | %38
 .[F,A,D].[F,A,D].[F,A,D] .[F,A,=C^D].[F,A,CD].[F,A,CD] | %39
!ped! .[E,A,CE] z z .!^![E,,E,] z!ped-up! z |!ped! .[E,A,CE] z z .!^![E,,E,] z!ped-up! z | %41
 [E,B,D] z z4 |"^riten" z2 z !fermata!z2 ||[K:C][M:3/4] z | %44
!ped! [A,,,A,,]2 [E,A,C]2 [E,A,C]2!ped-up! |!ped! ^G,,2 [E,A,C]2 [E,A,C]2!ped-up! | %46
!ped! E,,2 [E,^G,D]2 [E,G,D]2!ped-up! |!ped! A,,2 [E,A,C]2 [E,A,C]2!ped-up! | C,2 [E,A,]2 [E,A,]2 | %49
 D,2 [F,_B,]2 [F,B,]2 | _D,2 [^F,A,C]2 [F,A,C]2 | [E,B,]2 z2 z2 | %52
!ped! [A,,,A,,]2 [E,A,C]2 [E,A,C]2!ped-up! |!ped! ^G,,2 [E,A,C]2 [E,A,C]2!ped-up! | %54
!ped! E,,2 [E,^G,D]2 [E,G,D]2!ped-up! |!ped! A,,2 [E,A,C]2 [E,A,C]2!ped-up! | C,2 [E,A,]2 [E,A,]2 | %57
 E,2 [A,C]2 [A,C]2 | E,2 [^G,D]2 [G,D]2 | G,,2 [E,A,C]2 [E,A,C]2 | C,2 [E,A,]2 [E,A,]2 | %61
 E,2 [A,C]2 [A,C]2 | E,2 [^G,D]2 [G,D]2 | [A,C]2 z2 z2 |!ped! .C,2 ([CE]2 G,2)!ped-up! | %65
!ped! .C,2 ([CE]2 G,2)!ped-up! |!ped! .C,2 ([CE]2 G,2)!ped-up! |!ped! .B,,2 [DF]2 [DF]2!ped-up! | %68
 E,2 [DF]2 [DF]2 | E,2 [DF]2 [DF]2 | G,2 [DF]2 [DF]2 |!ped! .C,2 ([CE]2 G,2)!ped-up! | %72
!ped! .C,2 ([CE]2 G,2)!ped-up! |!ped! .C,2 ([CE]2 G,2)!ped-up! |!ped! .C,2 ([CE]2 G,2)!ped-up! | %75
!ped! .B,,2 [DF]2 [DF]2!ped-up! | G,2 [DF]2 [DF]2 | B,2 [DF]2 [DF]2 | G,2 [B,F]2 [B,F]2 | %79
 C,2 [G,CE]2 [G,CE]2 | D,2 [F,B,]2 [F,B,]2 | E,2 [A,C]2 [A,C]2 | D,2 [E,^G,B,]2 [E,G,B,]2 | %83
 C,2 [E,A,]2 [E,A,]2 | D,2 [F,B,]2 [F,B,]2 | E,2 [A,C]2 [A,C]2 | %86
!ped! D,2 [E,^G,B,]2 [E,G,B,]2!ped-up! | A,,2 [E,A,C]2 [E,A,C]2 | %88
!ped! A,,2 [E,A,C]2 [E,A,C]2!ped-up! |!ped! ^G,,2 [E,B,D]2 [E,B,D]2!ped-up! | %90
!ped! E,,2 [E,^G,D]2 [E,G,D]2!ped-up! |!ped! A,,2 [E,A,C]2 [E,A,C]2!ped-up! | C,2 [E,A,]2 [E,A,]2 | %93
 D,2 [F,_B,]2 [F,B,]2 | _D,2 [^F,A,C]2 [F,A,C]2 | [E,B,]2 z2 z2 | %96
!ped! [A,,,A,,]2 [E,A,C]2 [E,A,C]2!ped-up! | ^G,,2 [E,A,C]2 [E,A,C]2 | %98
!ped! E,,2 [E,^G,D]2 [E,G,D]2!ped-up! | A,,2 [E,A,C]2 [E,A,C]2 |!ped! C,2 [E,A,]2 [E,A,]2!ped-up! | %101
 E,2 [A,C]2 [A,C]2 | E,2 [^G,D]2 [G,D]2 | G,,2 [E,A,C]2 [E,A,C]2 | %104
!ped! C,2 [E,A,]2 [E,A,]2!ped-up! | E,2 [A,C]2 [A,C]2 | E,2 [^G,D]2 [G,D]2 | [A,C]2 z2 .E,2 | %108
!ped!{/E,} .A,,2 z2 .E,2!ped-up! |!ped!{/E,} .A,,2 z2 .E,2!ped-up! | %110
!ped!{/E,} .A,,2 z2 .E,2!ped-up! ||[K:A]!ped! A,,2 E,2 E,2!ped-up! | E,,2 E,2 E,2 | %113
!ped! G,,2 E,2 E,2!ped-up! | E,,2 E,2 E,2 |!ped! A,,2 E,2 E,2!ped-up! | E,,2 E,2 E,2 | %117
!ped! D,2 E,2 E,2!ped-up! | E,,2 E,2 E,2 | C,2 E,2 E,2 | A,,2 E,2 E,2 | D,2 [F,B,]2 [F,B,]2 | %122
 ^D,2 [F,A,B,]2 [F,A,B,]2 | E,2 [B,D]2 [B,D]2 | E,2 [B,D]2 [G,D]2 |1 .[A,C]2 (!>!C,2 D,2 | %126
 ^D,2 F,2 E,2) :|2 [A,C]2 (.A,2 .A,2) || A,,2 [C,=G,A,]2 [C,G,A,]2 | A,,2 [D,=F,A,]2 [D,F,A,]2 | %130
 A,,2 [=F,G,]2 [F,G,]2 | A,,2 [C,E,A,]2 [C,E,A,]2 | A,,2 [C,=G,A,]2 [C,G,A,]2 | %133
 A,,2 [D,=F,A,]2 [D,F,A,]2 | A,,2 [=F,G,]2 [F,G,]2 | (A,,2 .[E,A,]) z z2 | (A,,2 .[D,=F,G,]) z2 z | %137
 (A,,2 .[E,A,]) z2 z | (A,,2 .[D,^E,G,]) z z2 | A,,2 [E,A,] z z2 | .[C,=G,_B,]2 .[C,G,B,]2 z2 | %141
 [E,^B,_C]2 [E,B,C]2 z2 | [=G,^CE]2 .[G,CE]2 z2 | z2!f! [=G,^CE] z z2 | z2!p! [=G,^CE] z z2 | z6 | %146
 z6 ||[K:D]!ped! [D,,D,]2 [F,A,D]2 [F,A,D]2!ped-up! | F,6 | .E,2 [A,C]2 [A,C]2 | %150
 A,,2 [A,C]2 [A,C]2 | D,2 [F,A,D]2 [F,A,D]2 | F,6 | A,,2 [E,A,C]2 [E,A,C]2 | A,,2 [E,A,C] z z2 | %155
!ped! D,2 [F,A,D]2 [F,A,D]2!ped-up! | F,6 | .G,2 [B,D]2 [B,D]2 | E,6 | %159
!ped! A,,2 [F,A,D]2 [F,A,D]2!ped-up! |!ped! A,,2 [G,A,C]2 [G,A,C]2!ped-up! | %161
 A,,2 [F,A,D]2 [F,A,D]2 | [D,D]2 z2 z2 |!ped! [F,,F,]2 [F,^A,C]2 [F,A,C]2!ped-up! | %164
 B,,2 [F,B,D]2 [F,B,D]2 | C,2 [^E,B,]2 [E,B,]2 | F,,2 [C,F,^A,]2 [C,F,A,]2 | %167
 [F,,F,]2 [F,^A,C]2 [F,A,C]2 | B,,2 [F,B,D]2 [F,B,D]2 | C,2 [^E,B,]2 [E,B,]2 | %170
!ped! .F,,2 C,2 [F,^A,]2!ped-up! |!ped! .F,,2 (D,2 [^E,B,]2)!ped-up! | %172
!ped! .F,,2 (C,2 [F,^A,]2)!ped-up! |!ped! .F,,2 (C,2 [^E,B,]2)!ped-up! | %174
!ped! .F,,2 (C,2 [F,^A,]2)!ped-up! |!ped! .F,,2 (C,2 [^E,B,]2)!ped-up! | %176
!ped! .F,,2 (C,2 [F,^A,]2)!ped-up! |!ped! .F,,2 (C,2 B,2)!ped-up! | %178
!ped! .F,,2 z2 [C,F,^A,]2!ped-up! | .F,,2 z2 [C,F,^A,]2 | .F,,2 z2 .[C,F,=A,]2 | %181
 .F,,2 z2 .[C,F,A,]2 | .[=E,,=E,] z2 z2 z | .[A,,,A,,] z z2 z2 | z6 | z6 | %186
!ped! [D,,D,]2 [F,A,D]2 [F,A,D]2!ped-up! | F,6 | .E,2 [A,C]2 C2 | A,,2 [A,C]2 [A,C]2 | %190
 D,2 [F,A,D]2 [F,A,D]2 | F,6 | A,,2 [E,A,C]2 [E,A,C]2 | A,,2 [E,A,C] z z2 | %194
!ped! [D,,D,]2 [F,A,D]2 [F,A,D]2!ped-up! | F,6 | .G,2 [B,D]2 [B,D]2 | E,6 | %198
!ped! A,,2 [F,A,D]2 [F,A,D]2!ped-up! |!ped! A,,2 [G,A,C]2 [G,A,C]2!ped-up! | %200
 D,2 [F,A,D]2 [F,A,D]2 | .!^![D,D]2 z2 z2 |!ped! [F,,F,]2 [F,^A,C]2 [F,A,C]2!ped-up! | %203
 B,,2 [F,B,D]2 [F,B,D]2 | C,2 [^E,B,]2 [E,B,]2 | F,,2 [C,F,^A,]2 [C,F,A,]2 | %206
 [F,,F,]2 [F,^A,C]2 [F,A,C]2 | B,,2 [F,B,D]2 [F,B,D]2 | C,2 [^E,B,]2 [E,B,]2 | %209
 F,,2 [C,F,^A,]2 [C,F,A,]2 | B,,2 [F,B,D]2 [F,B,D]2 | F,,2 [F,^A,C]2 [F,A,C]2 | %212
 B,,2 [F,B,D]2 [F,B,D]2 | F,,2 [F,^A,C]2 [F,A,C]2 |!ped! =A,,2 [E,A,C]2 [E,A,C]2!ped-up! | %215
 E,,2 [E,^G,B,]2 [E,G,B,]2 |!ped! A,,2 [E,A,=C]2 [E,A,C]2!ped-up! | %217
!ped! E,,2 .[E,^G,B,]2 z2!ped-up! |!ped! [E,,E,]2 .[E,A,=C]2 z2!ped-up! | %219
!ped! [E,,E,]2 .[E,B,D]2 z2!ped-up! |!ped! [E,,E,]2 .[E,A,=C]2 z2!ped-up! | %221
!ped! [E,,E,]2 .[E,^G,B,]2 z2!ped-up! |!ped! [E,,E,]2 .[E,A,=C]2 z2!ped-up! | %223
!ped! [E,,E,]2 .[E,B,D]2 z2!ped-up! |!ped! [E,,E,]2 .[E,A,=C]2 z2!ped-up! | %225
 .[E,,E,]2 z2 !^![A,B,D]2 | .[^G,B,D]2 z2 !^![A,B,D]2 | .[^G,B,D]2 z2 !^![A,B,D]2 | %228
 .[^G,B,D]2 z2 !^![A,B,D]2 | [^G,B,D]2 .!^![=F,,=F,]z.!^![E,,E,] z | %230
 .!^![D,,D,]z.!^![E,,E,]z.!^![D,,D,] z | .!^![=C,,=C,]z.!^![D,,D,]z.!^![C,,C,] z | %232
 .!^![B,,,B,,]z.!^![=C,,=C,]z.!^![B,,,B,,] z ||[K:C]!ped! [A,,,A,,]2 [E,A,C]2 [E,A,C]2!ped-up! | %234
!ped! A,,2 [E,A,C]2 [E,A,C]2!ped-up! |!ped! ^G,,2 [E,B,D]2 [E,B,D]2!ped-up! | %236
!ped! E,,2 [E,^G,D]2 [E,G,D]2!ped-up! |!ped! A,,2 [E,A,C]2 [E,A,C]2!ped-up! | C,2 [E,A,]2 [E,A,]2 | %239
!ped! D,2 [F,_B,]2 [F,B,]2!ped-up! | ^C,2 [^F,A,C]2 [F,A,C]2 | .[E,B,]2 z2 z2 | %242
!ped! [A,,,A,,]2 [E,A,C]2 [E,A,C]2!ped-up! |!ped! ^G,,2 [E,B,D]2 [E,B,D]2!ped-up! | %244
!ped! E,,2 [E,^G,D]2 [E,G,D]2!ped-up! |!ped! A,,2 [E,A,C]2 [E,A,C]2!ped-up! | C,2 [E,A,]2 [E,A,]2 | %247
 E,2 [A,C]2 [A,C]2 | E,2 [^G,D]2 [G,D]2 |!ped! A,,2 [E,A,C]2 [E,A,C]2!ped-up! | %250
 C,2 [E,A,]2 [E,A,]2 | E,2 [A,C]2 [A,C]2 | .[E,^G,E]2 .[E,G,E]2 z2 | .[E,A,E]2 .[E,^G,E]2 z2 | %254
 .[E,A,E]2 .[E,^G,E]2 .[E,G,E]2 | .[E,^G,E]2 .[E,A,E]2 .[E,A,E]2 | %256
!ped! .[E,E]2 .[^D,^D]2 .[=D,=D]2!ped-up! | .[^C,^C]2 .[=C,=C]2 .[B,,B,]2 | %258
 .[^A,,^A,]2 .[=A,,=A,]2 .[^G,,^G,]2 | .[G,,G,]2 .[^F,,^F,]2 .[=F,,=F,]2 | %260
!ped! .[E,,E,]2 z2 .[E,E]2!ped-up! | .!^![E,E]2 z2 .[E,E]2 | .!^![E,E]2 z2 .[E,E]2 | %263
 .[E,E]2 z2 .[E,E]2 | C,2 [_B,CE]2 [B,CE]2 | C,2 [_B,CE]2 [B,CE]2 | %266
!ped! C,2 [A,CF]2 [A,CF]2!ped-up! | C,2 [A,CF]2 [A,CF]2 |!ped! C,2 [_B,CE]2 [B,CE]2!ped-up! | %269
 C,2 [_B,CE]2 [B,CE]2 | C,2 [A,CF]2 [A,CF]2 | C,2 [A,CF]2 [A,CF]2 | %272
!ped! C,2 [_B,CE]2 [B,CE]2!ped-up! | C,2 [_B,CE]2 [B,CE]2 |!ped! C,2 [A,CF]2 [A,CF]2!ped-up! | %275
 C,2 [A,CF]2 F-F |!ped! C,2 [_B,CE]2 [B,CE]2!ped-up! | C,2 [_B,CE]2 [B,CE]2 | F,2 [A,CF]2 [A,CF]2 | %279
 F,2 [A,^C]2 [A,C]2 | F,2 [A,D]2 [A,D]2 | F,2 [A,=C]2 [A,_D]2 | F,2 [A,^C]2 [A,C]2 | %283
 F,2 [A,^C]2 [A,C]2 | F,2 [A,D]2 [A,D]2 | F,2 [A,=C^D]2 [A,=CD]2 || %286
[K:A]!ped! E,2 [A,^CE]2 [A,CE]2!ped-up! |!ped! E,2 [A,^CE]2 [A,CE]2!ped-up! | %288
!ped! E,2 [B,D]2 [B,D]2!ped-up! | E,2 [B,D]2 [B,D]2 |!ped! E,2 [A,C]2 [A,C]2!ped-up! | %291
 E,2 [A,C]2 [A,C]2 |!ped! E,2 [A,C]2 [A,C]2!ped-up! | E,2 [A,C]2 [A,C]2 | A,2 [CE]2 [CE]2 | %295
 =G,2 [A,CE]2 [A,CE]2 | F,2 [A,^D]2 [A,D]2 | =F,2 [G,=D]2 [G,D]2 | E,2 [A,^CE]2 [A,^CE]2 | %299
 E,2 [A,CE]2 [A,CE]2 | E,2 [G,E]2 [G,E]2 | E,2 [CE]2 [CE]2 | A,2 [CE]2 [CE]2 | %303
 =G,2 [A,CE]2 [A,CE]2 | ^F,2 [A,^D]2 [A,D]2 | =F,2 [A,=D]2 [A,D]2 |!ped! [E,A,CE]2 z2 z2!ped-up! | %307
 [E,A,CE]2 z2 z2 |!ped! .[E,A,CE]2 .[E,A,CE]2 .[E,A,CE]2!ped-up! | %309
 .[E,A,CE]2 .[E,A,CE]2 .[E,A,CE]2 |!ped! [=F,=F]4 .[D,D]2!ped-up! | B,4 .[^G,,^G,]2 | %312
 [=F,,=F,]4 .[D,,D,]2 | [B,,,B,,]4 .[^G,,,^G,,]2 |!ped! [A,,,A,,]6-!ped-up! | %315
 .[A,,,A,,]2 .[C,,C,]2 .[D,,D,]2 | .[^D,,^D,]2 .[E,,E,]2 .[^E,,^E,]2 | %317
 .[F,,F,]2 .[=G,,=G,]2 .[^G,,^G,]2 |!ped! [A,,A,]6-!ped-up! | .[A,,A,]2 .[C,,C,]2 .[D,,D,]2 | %320
 .[^D,,^D,]2 .[E,,E,]2 .[^E,,^E,]2 | .[^F,,^F,]2 .[=G,,=G,]2 .[^G,,^G,]2 |!ped! [A,,A,]6-!ped-up! | %323
 .[A,,A,]2 .[C,,C,]2 .D,2 | .[^D,,^D,]2 .[E,,E,]2 .[^E,,^E,]2 | .[F,,F,]2 .[=G,,=G,]2 .[^G,,^G,]2 | %326
 .!^![A,,A,]2 .C,2 .E,2 | .!^!A,2 .C,2 .E,2 | .!^![A,,A,]2 .C,2 .E,2 | .!^![A,,A,]2 .C,2 .E,2 | %330
 .!^![A,,A,]2 z2 z2 | .[E,A,C]2 z2 z2 | .!^![A,,A,]2 z2 z2 | .[E,A,C]2 z2 z2 | %334
!ped! .!^![A,,,A,,]2!ped-up! z2 z2 |] %335
V:3
 x | x6 | x5[K:treble] x | x6 | x6 | x6 | x6 | x6 | x6 | A,3 B,3 | x6 | x6 | x6 | x6 | x6 | x6 || %16
[K:F] x6 | x6 | x6 | x6 | x6 | x6 ||[M:2/4] x4 | x4 | c>!1!=Bc>!4!A | c>=Bc>A | x4 | x4 | %28
 c>!1!=Bc>!4!A | c>!<(!!1!=B x/!<)! x3/2 | x4 | x4 | c/E/_d/E/ =d/E/c/E/ | x4 | %34
 c/!p!E/_d/E/ =d/E/c/.E/ ||[M:6/8] x6 | x6 | x6 | x6 | x3!8va(! x!8va)! x2 | %40
 x3!8va(!!8va(! x!8va)!!8va)! x2 | x6 | x5 ||[K:C][M:3/4] x | x6 | x6 | x6 | x6 | x6 | x6 | x6 | %51
 x6 | x6 | x6 | x6 | x6 | x6 | x6 | x6 | x6 | x6 | x6 | x6 | x6 | x6 | x6 | x6 | x6 | x6 | x6 | %70
 x6 | x6 | x6 | x6 | x6 | x6 | x6 | x6 | x6 | x6 | x6 | x6 | x6 | x6 | x6 | x6 | x6 | x6 | x6 | %89
 x6 | x6 | x6 | x6 | x6 | x6 | x6 | x6 | x6 | x6 | x6 | x6 | x6 | x6 | x6 | x6 | x6 | x6 | x6 | %108
 x6 | x6 | x6 ||[K:A] !1!!2![A,C]6- | [A,C]6 | !arpeggio![B,D]6- | [B,D]6 | !1!!2![A,C]6- | %116
 [A,C]6 | !arpeggio![G,D]6- | [G,D]2 x4 | A,6 | C6 | F6 | x6 | x6 | x6 |1 x6 | x6 :|2 x6 || x6 | %129
 x6 | x6 | x6 | x6 | x6 | x6 | x6 | x6 | x6 | x6 | x6 | x6 | x6 | x6 | x6 | x6 | x6 | x6 || %147
[K:D] x6 | x6 | x6 | x6 | x6 | x6 | x6 | x6 | x6 | x6 | x6 | x6 | x6 | x6 | x6 | x6 | x6 | x6 | %165
 x6 | x6 | x6 | x6 | x6 | x6 | x6 | x6 | x6 | x6 | x6 | x6 | x6 | x6 | x6 | x6 | x6 | x6 | x6 | %184
 x6 | x6 | x6 | x6 | x6 | x6 | x6 | x6 | x6 | x6 | x6 | x6 | x6 | x6 | x6 | x6 | x6 | x6 | x6 | %203
 x6 | x6 | x6 | x6 | x6 | x6 | x6 | x6 | x6 | x6 | x6 | z2 (cB=A!4!c) | x6 | z2 (!3!=cBA!4!c) | %217
 x6 | x6 | x6 | x6 | x6 | x6 | x6 | x6 | x6 | x6 | x6 | x6 | x6 | x6 | x6 | x6 ||[K:C] x6 | x6 | %235
 x6 | x6 | x6 | x6 | x6 | x6 | x6 | x6 | x6 | x6 | x6 | x6 | x6 | x6 | x6 | x6 | x6 | x6 | x6 | %254
 x6 | x6 | x6 | x6 | x6 | x6 | x6 | x6 | x6 | x6 | x6 | x6 | x6 | x6 | x6 | x6 | x6 | x6 | x6 | %273
 x6 | x6 | x6 | x6 | x6 | x6 | x6 | x6 | x6 | x6 | x6 | x6 | x6 ||[K:A] x5 z | [Ac]6 | x6 | x6 | %290
 x6 | [Ac]6 | x6 | x6 | x6 | x6 |!8va(! x6 | x6 | x6 | x2!8va)! x4 | x6 | x6 | x4!8va(! x2 | x6 | %304
 x6 | x6 | x6 | x2!8va)! x4 | x6 | x6 | x6 | x6 | x6 | x6 | x6 | x6 | x6 | x6 | x6 | x6 | x6 | x6 | %322
 x6 | x6 | x6 | x6 | x6 | x6 | x6 | x6 | x6 | x6 | x6 | x6 |!8va(! x2!8va)! x4 |] %335
V:4
 x | x6 | x6 | x6 | x6 | x6 | x6 | x6 | x6 | x6 | x6 | G,,3- ([G,,,G,,-]3 | [C,,G,,]) x5 | x6 | %14
 x3 [_D,,C,]3 | [_D,,C,]3 [D,,C,]3 ||[K:F] x6 | x6 | [C,,C,] x2[K:treble] x3 | x6 | %20
[K:bass] [C,,C,] x5 | x6 ||[M:2/4] x4 | x4 | x4 | x4 | x4 | x4 | x4 | x4 | x4 | x4 | x4 | x4 | %34
 x4 ||[M:6/8] x6 | x6 | x6 | x6 | x6 | x6 | x6 | x5 ||[K:C][M:3/4] x | x6 | x6 | x6 | x6 | C,6 | %49
 D,6 | _D,6 | x6 | x6 | x6 | x6 | x5 z | C,6 | E,6 | E,6 | x6 | C,6 | E,6 | E,6 | x6 | x6 | x6 | %66
 x6 | x6 | E,6 | E,6 | G,6 | x6 | x6 | x6 | x6 | x6 | G,6 | B,6 | G,6 | x6 | D,6 | E,6 | D,6 | %83
 C,6 | D,6 | E,6 | D,6 | x6 | x6 | x6 | x6 | x6 | C,6 | D,6 | _D,6 | x6 | x6 | x6 | x6 | x5 z | %100
 C,6 | E,6 | E,6 | x6 | C,6 | E,6 | E,6 | x6 | x6 | x6 | x6 ||[K:A] A,,6 | E,,6 | G,,6 | E,,6 | %115
 A,,6 | E,,6 | D,6 | E,,6 | C,6 | A,,6 | D,6 | ^D,6 | E,6 | E,6 |1 x6 | x6 :|2 x6 || x6 | x6 | x6 | %131
 x6 | x6 | x6 | x6 | x6 | x6 | x6 | x6 | x6 | x6 | x6 | x6 | x6 | x6 | x6 | x6 ||[K:D] x6 | %148
 x [A,D]2 [A,D]2 x | x6 | x6 | x6 | x [^G,D]2 [G,D]2 x | x6 | x6 | x6 | x [A,D]2 [A,D]2 x | x6 | %158
 x [G,_B,D]2 [G,B,D]2 x | x6 | x6 | x6 | x6 | x6 | x6 | C,6 | x6 | x6 | x6 | C,6 | x6 | x6 | x6 | %173
 x6 | x6 | x6 | x6 | x6 | x6 | x6 | x6 | x6 | x6 | x6 | x6 | x6 | x6 | x2 [A,D]2 [A,D]2 | x6 | x6 | %190
 x6 | x2 [^G,D]2 [G,D]2 | x6 | x6 | x6 | x2 [A,D]2 [A,D]2 | x6 | x2 [G,_B,D]2 [G,B,D]2 | x6 | x6 | %200
 x6 | x6 | x6 | x6 | C,6 | x6 | x6 | x6 | C,6 | x6 | x6 | x6 | x6 | x6 | x6 | x6 | x6 | x6 | x6 | %219
 x6 | x6 | x6 | x6 | x6 | x6 | x6 | x6 | x6 | x6 | x6 | x6 | x6 | x6 ||[K:C] x6 | x6 | x6 | x6 | %237
 x6 | C,6 | D,6 | ^C,6 | x6 | x6 | x6 | x6 | x6 | C,6 | E,6 | E,6 | x6 | C,6 | E,6 | x6 | x6 | x6 | %255
 x6 | x6 | x6 | x6 | x6 | x6 | x6 | x6 | x6 | x6 | x6 | x6 | x6 | x6 | x6 | x6 | x6 | x6 | x6 | %274
 x6 | x6 | x6 | x6 | x6 | F,6 | F,6 | F,6 | F,6 | F,6 | F,6 | F,6 ||[K:A] E,6 | E,6 | E,6 | E,6 | %290
 E,6 | E,6 | E,6 | E,6 | A,6 | =G,6 | ^F,6 | =F,6 | x6 | x6 | x6 | x6 | A,6 | =G,6 | F,6 | =F,6 | %306
 x6 | x6 | x6 | x6 | x6 | x6 | x6 | x6 | x6 | x6 | x6 | x6 | x6 | x6 | x6 | x6 | x6 | x6 | x6 | %325
 x6 | x6 | x6 | x6 | x6 | x6 | x6 | x6 | x6 | x6 |] %335

